X: 8
T: Vals-Ottetur
B:[[Notböcker/Melodier til gamle danske Almuedanse for Violin solo]]
O:Danmark
Z:Søren Bak Vestergaard
M: 3/4
L: 1/8
K: G
uD2|G2 G2 (FA)|G2 G2 (FA)|G2 D2 D2|D4 (uDF)|A4 (DF)|A4 (cA)|\
B2 G2 G2|G2 z2:| |:uB2|(d2 g2) g2|agfed^c|defgaf|g2 bg d2|\
(d2 g2) g2|agfed^c|defgaf|g2 z2:| |:d2|b2 gggg|\
b2 gggg|b2 (ba)gf|e4 (fg)|a2 aaaa|a2 aaaa|\
gfedef|g2 z2:| |:D2|G2 (BG)GB|(cD) (BD) (AD)|(cD) (BD) (AD)|\
G2 BG D2|G2 (BG)GB|(cD) (BD) (AD)|(cD) (BD) (AD)|G2 z2:|

